!!!COM: Bach, Johann Sebastian
!!!CDT: 1685/3//-1750/7/28/
!!!OTL@@DE: O Welt, sieh hier dein Leben
!!!AGN: 4-Part Chorale
!!!SCT: BH 366
!!!SCT: BWV 394
**harm	**root	**kern	**kern	**kern	**kern
!	!	!bass	!tenor	!alto	!soprno
*	*Iorgan	*Iorgan	*Iorgan	*Iorgan	*Iorgan
*M4/4	*M4/4	*M4/4	*M4/4	*M4/4	*M4/4
*met(c)	*met(c)	*met(c)	*met(c)	*met(c)	*met(c)
*MM60	*MM60	*MM60	*MM60	*MM60	*MM60
*k[f#c#g#d#]	*k[f#c#g#d#]	*k[f#c#g#d#]	*k[f#c#g#d#]	*k[f#c#g#d#]	*k[f#c#g#d#]
*E:	*E:	*E:	*E:	*E:	*E:
I	4AA	4E	4B	8e	8g#
.	.	.	.	8d#	8f#
=1	=1	=1	=1	=1	=1
IV	4DD	8A	8c#	4.c#	4e
.	.	8G#	8B	.	.
ii	4BB	4F#	4A	.	4f#
.	.	.	.	8d#	.
I	4AA	4E	4B	4.e	8g#
.	.	.	.	.	8a
Ib	4AA	4GG#	4E	.	4b
.	.	.	.	8B	.
=2	=2	=2	=2	=2	=2
ii7	4BB	4FF#	4E	4c#	2a
V7	4EE	4BB	4D#	4B	.
I;	4AA;	4EE;	4E;	4B;	4g#;
I	4AA	8E	4B	4e	8g#
.	.	8F#	.	.	8a
=3	=3	=3	=3	=3	=3
Ib	4AA	4G#	4B	8e	4b
.	.	.	.	8d#	.
Ib	4AA	8GG#	4B	8e	4b
.	.	8AA	.	8f#	.
V	4EE	4BB	8B	8d#	4f#
.	.	.	8A	8c#	.
I	4AA	8E	4G#	4B	8g#
.	.	8D#	.	.	8f#
=4	=4	=4	=4	=4	=4
vi7	4FF#	4C#	4G#	4B	2e
V7/V	4BB	4FF#	4F#	4A#	.
V;	4EE;	4BB;	4F#;	4B;	4d#;
V	4EE	8BB	4D#	4F#	4B
.	.	8AA	.	.	.
=5	=5	=5	=5	=5	=5
Ib	8AA	8GG#	4E	8B	4e
IV	8DD	8AA	.	8c#	.
viioc	4GG#	8GG#	4A	4d#	4f#
.	.	8FF#	.	.	.
I	8AA	4EE	8B	8e	8g#
viioc	8GG#	.	8A	8d#	8f#
I	8AA	8E	8B	8e	8g#
iib	8BB	8AA	8c#	8f#	8a
=6	=6	=6	=6	=6	=6
V;	2EE;	2BB;	2B;	2d#;	2f#;
r	4r	4r	4r	4r	4r
V/vi	4CC#	4GG#	4B#	4d#	8g#
.	.	.	.	.	8f#
!!linebreak: 2
=7	=7	=7	=7	=7	=7
vi	4FF#	4C#	8G#	4c#	4e
.	.	.	8A	.	.
Vb	4EE	4D#	8G#	4B	4f#
.	.	.	8F#	.	.
I	4AA	8E	4E	8B	8g#
.	.	8F#	.	8A	8a
I	4AA	8E	4E	4G#	4b
.	.	8D#	.	.	.
=8	=8	=8	=8	=8	=8
IVb	4DD	4C#	8E	8G#	2a
.	.	.	4c#	16F#	.
.	.	.	.	16E	.
V7b	4EE	4D#	.	4F#	.
.	.	.	8B	.	.
I;	4AA;	4E;	4B;	4E;	4g#;
vi	4FF#	4C#	4c#	4e	8g#
.	.	.	.	.	8a
=9	=9	=9	=9	=9	=9
Vb	8EE	8D#	4B	8f#	4b
I	8AA	8E	.	8g#	.
Vb	4EE	8D#	4F#	8f#	4b
.	.	8C#	.	8e	.
V	4EE	8BB	8F#	8d#	4f#
.	.	8C#	8E	8c#	.
iiib	8CC#	8BB	8D#	4d#	8g#
v7c/iii	8GG#	8AA#	8C#	.	8f#
=10	=10	=10	=10	=10	=10
iii7b	8CC#	4GG#	8BB	8d#	2e
vic	8FF#	.	4G#	16c#	.
.	.	.	.	16B	.
viio7/V	4DD#	4AA#	.	4c#	.
.	.	.	8F#	.	.
V;	4EE;	4BB;	4F#;	4B;	4d#;
iii	4CC#	4GG#	8G#	8B	4B
.	.	.	8F#	8A	.
=11	=11	=11	=11	=11	=11
vi	4FF#	4C#	4E	8G#	4e
.	.	.	.	8A	.
iii7b	8CC#	8BB	8D#	8G#	4f#
iib	8BB	8AA	8C#	8F#	.
Ib	4AA	8GG#	4.BB	4E	8g#
.	.	8FF#	.	.	8a
Ib	8AA	8GG#	.	4e	8b
IV	8DD	8AA	8C#	.	8a
=12	=12	=12	=12	=12	=12
iiib	8CC#	8BB	8D#	8B	4g#
IV7	8DD	8AA	4E	8c#	.
V	4EE	4BB	.	8F#	4f#
.	.	.	8D#	8B	.
I;	4AA;	4EE;	4BB;	4G#;	4e;
==	==	==	==	==	==
*-	*-	*-	*-	*-	*-
!!chor2scor: -l 2 -o %b.pmx
!!!YEC: Copyright 1994, David Huron
!!!YEC: Changes/Additions 2001 by Craig Stuart Sapp
!!!YEN: United States of America
!!!SMA: 371 Bach Chorales, edited by Ludwig Erk, C.F. Peters
!!!PDT: 1850, 1865
!!!ONB: Harmony and Root analysis done manually
